X:1
T:Liverpool (Roberts), 64.64.664
T:Liverpool (Roberts), 64.64.664
T:John Roberts (1822-1877)
T:Public Domain Courtesy of the Cyber Hymnal™
C:John Roberts (1822-1877)
Z:Public Domain
Z:Courtesy of the Cyber Hymnal™
%%score ( 1 2 ) ( 3 4 )
L:1/8
Q:1/4=112
M:none
K:C
V:1 treble 
V:2 treble 
V:3 bass 
V:4 bass 
V:1
 [EA]4 [CE]2 [DG]2 | [FA]2 [FA]2 [EG]4 | [EA]4 [Ec]2 [DB]2 | [CA]8 | [Cc]4 [Cc]2 [EG]2 | %5
 [FA]2 [FB]2 [Ec]4 | [Dd]4 [DB]2 [CA]2 | [B,G]8 | [Ge]4 [Gc]2 [Ge]2 | [Gd]2 [Gc]2 [GB]4 | %10
 [Gd]4 [Ec]2 [EA]2 | [EG]2 [^D^F]2 E4 | [EB]4 [EA]2 [Ec]2 | c2 z [EB]4 x | [EA]4 [FA]2 [E^G]2 | %15
 [CA]8 || %16
V:2
 x8 | x8 | x8 | x8 | x8 | x8 | x8 | x8 | x8 | x8 | x8 | x4 E4 | x8 | E3 A2 ^D x2 | x8 | x8 || %16
V:3
 [A,C]4 A,2 [G,B,]2 | [F,C]2 [F,C]2 [C,C]4 | [C,A,]4 [A,,A,]2 [E,^G,]2 | [A,,A,]8 | %4
 [F,A,]4 [E,G,]2 [C,C]2 | [F,C]2 [D,D]2 [C,G,]4 | [B,,G,]4 [D,G,]2 [D,^F,]2 | [G,,G,]8 | %8
 C4 [CE]2 C2 | [B,F]2 [CE]2 [G,D]4 | [G,B,]4 [A,C]2 [A,,C]2 | [B,,B,]2 [B,,A,]2 [E,G,]4 | %12
 [E,^G,]4 [C,A,]2 [A,,A,]2 | A,2 [F,A,]2 [E,^G,]4 | [C,C]4 [D,B,]2 [E,B,]2 | [A,,A,]8 || %16
V:4
 x4 A,2 x2 | x8 | x8 | x8 | x8 | x8 | x8 | x8 | C4 C2 x2 | x8 | x8 | x8 | x8 | A,2 x6 | x8 | x8 || %16

